svgs/duotone/calendar-lines-pen.svg

<svg xmlns="http://www.w3.org/2000/svg" viewBox="0 0 576 512"><!--! Font Awesome Pro 6.6.0 by @fontawesome - https://fontawesome.com License - https://fontawesome.com/license (Commercial License) Copyright 2024 Fonticons, Inc. --><defs><style>.fa-secondary{opacity:.4}</style></defs><path class="fa-secondary" d="M0 112l0 48 448 0 0-48c0-26.5-21.5-48-48-48l-48 0 0-32c0-17.7-14.3-32-32-32s-32 14.3-32 32l0 32L160 64l0-32c0-17.7-14.3-32-32-32S96 14.3 96 32l0 32L48 64C21.5 64 0 85.5 0 112zm0 80L0 464c0 26.5 21.5 48 48 48l210.8 0c-3.1-8.8-3.7-18.4-1.4-27.8l15-60.1c2.8-11.3 8.6-21.5 16.8-29.7L448 235.6l0-43.6L0 192zM96 296c0-13.3 10.7-24 24-24l144 0c13.3 0 24 10.7 24 24s-10.7 24-24 24l-144 0c-13.3 0-24-10.7-24-24zm0 96c0-13.3 10.7-24 24-24l80 0c13.3 0 24 10.7 24 24s-10.7 24-24 24l-80 0c-13.3 0-24-10.7-24-24z"/><path class="fa-primary" d="M493.2 235.7l-29.4 29.4 71 71 29.4-29.4c15.6-15.6 15.6-40.9 0-56.6l-14.4-14.4c-15.6-15.6-40.9-15.6-56.6 0zm-52 52L311.9 417c-4.1 4.1-7 9.2-8.4 14.9l-15 60.1c-1.4 5.5 .2 11.2 4.2 15.2s9.7 5.6 15.2 4.2l60.1-15c5.6-1.4 10.8-4.3 14.9-8.4L512.1 358.7l-71-71z"/></svg>

<svg xmlns="http://www.w3.org/2000/svg" viewBox="0 0 576 512"><!--! Font Awesome Pro 6.4.0 by @fontawesome - https://fontawesome.com License - https://fontawesome.com/license (Commercial License) Copyright 2023 Fonticons, Inc. --><defs><style>.fa-secondary{opacity:.4}</style></defs><path class="fa-primary" d="M493.2 235.7l-29.4 29.4 71 71 29.4-29.4c15.6-15.6 15.6-40.9 0-56.6l-14.4-14.4c-15.6-15.6-40.9-15.6-56.6 0zm-52 52L311.9 417c-4.1 4.1-7 9.2-8.4 14.9l-15 60.1c-1.4 5.5 .2 11.2 4.2 15.2s9.7 5.6 15.2 4.2l60.1-15c5.6-1.4 10.8-4.3 14.9-8.4L512.1 358.7l-71-71z"/><path class="fa-secondary" d="M96 32V64H48C21.5 64 0 85.5 0 112v48H448V112c0-26.5-21.5-48-48-48H352V32c0-17.7-14.3-32-32-32s-32 14.3-32 32V64H160V32c0-17.7-14.3-32-32-32S96 14.3 96 32zM448 192H0V464c0 26.5 21.5 48 48 48H258.8c-3.1-8.8-3.7-18.4-1.4-27.8l15-60.1c2.8-11.3 8.6-21.5 16.8-29.7L448 235.6V192zM96 296c0-13.3 10.7-24 24-24H264c13.3 0 24 10.7 24 24s-10.7 24-24 24H120c-13.3 0-24-10.7-24-24zm24 72h80c13.3 0 24 10.7 24 24s-10.7 24-24 24H120c-13.3 0-24-10.7-24-24s10.7-24 24-24z"/></svg>
